svgs/duotone/arrows-up-down.svg

<svg xmlns="http://www.w3.org/2000/svg" viewBox="0 0 256 512"><!-- Font Awesome Pro 6.0.0-alpha2 by @fontawesome - https://fontawesome.com License - https://fontawesome.com/license (Commercial License) --><defs><style>.fa-secondary{opacity:.4}</style></defs><path d="M54.625 361.375L96 402.75V256H160V402.75L201.375 361.375C213.875 348.875 234.125 348.875 246.625 361.375C252.875 367.625 256 375.812 256 384S252.875 400.375 246.625 406.625L150.625 502.625C138.125 515.125 117.875 515.125 105.375 502.625L9.375 406.625C-3.125 394.125 -3.125 373.875 9.375 361.375S42.125 348.875 54.625 361.375Z" class="fa-secondary"/><path d="M9.375 150.625C-3.125 138.125 -3.125 117.875 9.375 105.375L105.375 9.375C117.875 -3.125 138.125 -3.125 150.625 9.375L246.625 105.375C252.875 111.625 256 119.812 256 128S252.875 144.375 246.625 150.625C234.125 163.125 213.875 163.125 201.375 150.625L160 109.25V256H96V109.25L54.625 150.625C42.125 163.125 21.875 163.125 9.375 150.625Z" class="fa-primary"/></svg>

<svg xmlns="http://www.w3.org/2000/svg" viewBox="0 0 256 512"><!--! Font Awesome Pro 6.3.0 by @fontawesome - https://fontawesome.com License - https://fontawesome.com/license (Commercial License) Copyright 2023 Fonticons, Inc. --><defs><style>.fa-secondary{opacity:.4}</style></defs><path class="fa-primary" d="M9.375 150.6c-12.5-12.5-12.5-32.75 0-45.25l96-96c12.5-12.5 32.75-12.5 45.25 0l96 96C252.9 111.6 256 119.8 256 128s-3.125 16.38-9.375 22.62c-12.5 12.5-32.75 12.5-45.25 0L160 109.3V256H96V109.3L54.63 150.6C42.13 163.1 21.88 163.1 9.375 150.6z"/><path class="fa-secondary" d="M54.63 361.4L96 402.8V256h64v146.8l41.38-41.38c12.5-12.5 32.75-12.5 45.25 0C252.9 367.6 256 375.8 256 384s-3.125 16.38-9.375 22.62l-96 96c-12.5 12.5-32.75 12.5-45.25 0l-96-96c-12.5-12.5-12.5-32.75 0-45.25S42.13 348.9 54.63 361.4z"/></svg>
